X: 33372
T: Queen Of The Rushes, The
R: jig
M: 6/8
K: Gmajor
|:BAB GBd|cBc ABc|BAB GBd|cAG FGA|
BAB GBd|cBc ABc|ded cAF|1 AGF G2A:|2 AGF G2g||
|:fed efg|afd cAF|GBd gfg|afd d2e|
fed efg|afd cAF|ded cAF|1 AGF G2g:|2 AGF GBd||
|:gdB gdB|ecA ecA|BAB GBd|cAG FGA|
[1 gdB gdB|ecA ecA|BAB GBd|cAF GBd:|
[2 BAB GBd|cBc ABc|ded cAF AGF G3||

